X:1
T: The Fourth of February
C:C Sherrit
R:Jig
Q:180
K:D
M:6/8
L:1/16
|:A2|d2e2f2 e2d2c2|d6 B4G2|A4d2 f2e2d2|c2d2e2 A2B2c2|
d2e2f2 e2d2c2|d6 B4G2|A4d2 c2d2e2|1d6 d4:|2d6 d6|
|:F2G2A2 A2B2=c2|B6 G4B2|A2B2c2 d4e2|f2e2d2 c2B2A2|
|1F2G2A2 A2B2=c2|B6 G4B2|A4d2 c2d2e2|d6 d4A2:|
|2f2e2d2 c2d2e2|d2c2B2 A2G2F2|G4B2 A2B2c2|d6 d4||
